X:1
T:Autumn in Rome
T:Autumn in Rome
T:Based on a theme by Alessandro Cicognini
T:Paul Weston
T:Sammy Cahn
C:Alessandro Cicognini and Paul Weston
Z:All Rights Reserved
L:1/8
M:3/4
K:Eb
V:1 treble 
%%MIDI program 40
V:1
"Cm" C2 D3 _E |"Ab9" G6 |"Cm" C2 D3 _E |"Ab9" d2 c4 |"Fm7" c2 de"Bb+7" dc |"^Ebma7" G6 | %6
w: Au- tumn in|Rome,|My heart re-|mem- bers|foun- tains where chil- dren|played,|
"^Dbma7" F2 GA GF |"^Fm6 G-9" D6 |"Cm" C2 D3 _E |"Ab9" _G6 |"Cm" C2 D3 _E |"Ab7" d2 c4 | %12
w: gar- dens where dreams were|made.|Au- tumn in|Rome,|mem- ories like|em- bers|
"Cm" c2 d"Bb+7"e dc |"^Ebma7" G6 |"Fm6" F2 GA"^G-9" GE |"Cm" C6 ||"C7" CD =EF GA | Bc _d3 e | %18
w: glow when I seem to|hear|"Ar- ri- va- der- ci|dear."|Walks be- neath the pines that|grace the gol den|
"Fm" c6- | c4 z2 |"Bb7" B,C DE FG | AB _c3 _d |"Eb" B4"Fm6" A"^G-9+"B |"Cm" G6 |"Cm" C2 D3 _E | %25
w: sky.||Stop- ping now and then to|share a lo- vers|sigh, you and|I.|Let win- ter|
"Ab9" G6 |"Cm" C2 D3 _E |"Ab9" d2 c4 |"Fm7" c2 de"Bb+7" dc |"^Ebma7" G6 |"Fm6" F2 GA"G+7" GF | %31
w: come,|all my De-|cem- bers|I'll spend just dream- ing|of|the way we fell in|
"Cm" E6 |"Fm" F2 G2 A2 |"^G-9+" e2 =B3 d |"Cm" c6- | c4 z2 |] %36
w: love|one lov- ely|Au- tumn in|Rome.||

